X:3
T:茉莉花第三声部
C:江苏民歌/李春华编曲
M:4/4
L:1/4
K:F
C/z/C/C/C/z/C/A,/|G,/z/A,/z/G,/z/z|
C/z/C/C/C/z/C/A,/|G,/z/G,/z/G,/z/z|
G,/z/G,/z/G,/z/G,/A,/|C/z/C/z/G,/z/z|
G,/z/A,/C/G,G,|G,/z/G,/G,/A,G,|
z2G,/G,/A,/C/|z2G,/A,/C/C/|
D/z/z3|G,2A,C|
D3/2C/C/D/C/A,/|G,A,CD|
CG,A,C|G,G,/A,/G,z|
G,G,A,C|G,3/2C/G,G,|
CCCC/G,/|CCD2|
G,3/2G,/C3/2D/|CC/D/Cz|
A,A,A,3/2C/|CA,G,z|
z4|G,2A,C|
D3/2C/C/D/C/A,/|G,4|